src/lib/packages/icons/src/assets/filled/sack-dollar.svg

<svg width="24" height="24" viewBox="0 0 24 24" fill="none" xmlns="http://www.w3.org/2000/svg">
<path d="M16.589 4.51099L15.926 5.62402C15.854 5.74502 15.723 5.81897 15.582 5.81897H8.41699C8.27599 5.81897 8.145 5.74502 8.073 5.62402L7.409 4.50903C7.013 3.84303 7.492 2.99902 8.267 2.99902H15.729C16.506 3.00002 16.986 3.84499 16.589 4.51099ZM20 15C20 17 19 21 12 21C5 21 4 17 4 15C4 11.679 6.07099 9.04398 7.70499 7.43298C7.78099 7.35798 7.87999 7.31995 7.98599 7.31995H16.014C16.12 7.31995 16.22 7.35798 16.295 7.43298C17.929 9.04398 20 11.679 20 15ZM14.5 15.613C14.5 14.584 13.81 13.688 12.818 13.433L11.553 13.114C11.393 13.072 11.257 12.982 11.153 12.847C11.054 12.72 11 12.556 11 12.387C11 11.974 11.325 11.639 11.725 11.639H12.276C12.645 11.639 12.954 11.9251 12.996 12.3051C13.041 12.7171 13.406 13.011 13.824 12.968C14.236 12.923 14.532 12.551 14.487 12.14C14.379 11.163 13.665 10.3969 12.75 10.1949V10C12.75 9.586 12.414 9.25 12 9.25C11.586 9.25 11.25 9.586 11.25 10V10.193C10.251 10.414 9.5 11.312 9.5 12.387C9.5 12.888 9.66699 13.378 9.96399 13.762C10.265 14.157 10.696 14.442 11.182 14.567L12.447 14.886C12.773 14.97 13 15.269 13 15.613C13 15.813 12.923 16.002 12.782 16.145C12.645 16.285 12.465 16.361 12.275 16.361H11.724C11.355 16.361 11.046 16.0749 11.004 15.6949C10.958 15.2829 10.593 14.987 10.176 15.032C9.76399 15.077 9.468 15.449 9.513 15.86C9.621 16.837 10.335 17.6031 11.25 17.8051V18C11.25 18.414 11.586 18.75 12 18.75C12.414 18.75 12.75 18.414 12.75 18V17.807C13.164 17.716 13.545 17.509 13.851 17.198C14.27 16.773 14.5 16.21 14.5 15.613Z" fill="currentColor"/>
</svg>

<svg xmlns="http://www.w3.org/2000/svg" width="24" height="24" fill="none"><path fill="currentColor" d="m16.589 4.511-.663 1.113a.4.4 0 0 1-.344.195H8.417a.4.4 0 0 1-.344-.195l-.664-1.115a.999.999 0 0 1 .858-1.51h7.462a1 1 0 0 1 .86 1.512ZM20 15c0 2-1 6-8 6s-8-4-8-6c0-3.321 2.071-5.956 3.705-7.567a.394.394 0 0 1 .281-.113h8.028c.106 0 .206.038.281.113C17.929 9.044 20 11.679 20 15Zm-5.5.613c0-1.029-.69-1.925-1.682-2.18l-1.265-.319a.731.731 0 0 1-.4-.267.75.75 0 0 1-.153-.46c0-.413.325-.748.725-.748h.551c.369 0 .678.286.72.666a.75.75 0 0 0 1.491-.165 2.237 2.237 0 0 0-1.737-1.945V10a.75.75 0 0 0-1.5 0v.193a2.245 2.245 0 0 0-1.75 2.194c0 .501.167.991.464 1.375.301.395.732.68 1.218.805l1.265.319a.745.745 0 0 1 .553.727c0 .2-.077.389-.218.532a.705.705 0 0 1-.507.216h-.551a.734.734 0 0 1-.72-.666.75.75 0 0 0-1.491.165 2.237 2.237 0 0 0 1.737 1.945V18a.75.75 0 0 0 1.5 0v-.193a2.244 2.244 0 0 0 1.75-2.194Z"/></svg>
